frontend/public/svg/food/cake.svg

<svg width="155" height="156" viewBox="0 0 155 156" fill="none" xmlns="http://www.w3.org/2000/svg">
<g clip-path="url(#clip0)">
<path d="M82.1982 18.0689C82.6123 18.485 83.0501 18.8759 83.5108 19.2398C96.3633 27.0332 109.187 34.8718 122.089 42.5824C129.209 46.8381 136.484 50.8333 143.631 55.0431C145.318 56.1372 146.92 57.3573 148.423 58.693C148.93 59.1078 149.579 59.7024 149.631 60.2635C149.93 63.4966 152.403 66.3313 151.177 69.8867C150.73 71.1862 151.041 72.77 151.103 74.2185C151.991 95.0743 152.923 115.928 153.766 136.786C153.874 139.466 153.513 142.163 153.445 144.854C153.418 145.713 153.536 146.571 153.794 147.392C154.764 150.351 153.759 152.814 150.815 153.812C149.321 154.281 147.761 154.512 146.195 154.496C126.433 154.638 106.67 154.746 86.9067 154.819C71.9718 154.885 57.0348 155.033 42.1012 154.911C31.6654 154.826 21.2353 154.328 10.8015 154.058C8.21026 153.992 6.64447 153.095 5.43025 150.494C4.03642 147.566 3.26945 144.38 3.17793 141.138C2.55441 121.615 1.87043 102.093 1.26661 82.5691C1.14847 78.7577 1.2888 74.9385 1.32621 71.1232C1.29342 70.5653 1.35195 70.0048 1.49863 69.4653C3.87195 62.8364 5.95399 56.0847 8.74012 49.6349C15.53 33.6631 25.8333 19.4272 38.883 7.98562C41.3567 5.8732 43.9964 3.96366 46.777 2.27552C50.1079 0.202148 51.4125 0.516473 54.4454 3.05059C55.6769 4.02714 56.9995 4.88246 58.3956 5.60448C63.215 8.2456 68.1033 10.7632 72.8893 13.4628C74.5827 14.4177 75.7116 14.2661 77.4017 13.1844C81.1946 10.8204 85.1169 8.67117 89.1508 6.7465C90.575 6.09205 92.141 5.8084 93.7044 5.92207C94.7546 5.99361 96.2819 6.7957 96.5976 7.64301C96.9074 8.47328 96.2445 10.0799 95.4884 10.798C94.307 11.921 92.7153 12.6437 91.2405 13.4267C88.3973 14.9415 85.5087 16.3802 82.1982 18.0689ZM139.611 63.3122C118.366 50.3456 98.094 36.1825 76.4447 24.1702C75.8054 24.9158 75.4189 25.3135 75.0953 25.7572C74.7107 26.2823 74.3799 26.8534 73.8824 27.6272C74.7711 28.3548 75.619 29.1309 76.4217 29.9519C81.9632 36.2567 81.6777 46.8481 75.4464 51.8081C69.9988 56.1432 63.582 58.1522 56.5343 57.0929C50.9409 56.2521 47.39 52.1841 46.9673 46.537C46.2125 36.457 53.9565 26.4634 63.9315 25.2591C67.0899 24.8777 68.8161 23.6059 69.8925 20.8099L48.2018 7.75984C30.4433 23.5415 17.8956 43.0289 11.4386 66.5676C19.7203 67.5455 128.53 65.299 139.611 63.3122ZM9.19969 74.7436C8.74025 76.5157 9.77444 91.2236 10.7399 94.4068C16.7224 94.4068 22.771 94.6319 28.7982 94.3615C43.6032 93.6973 58.3987 92.8592 73.1965 91.9908C94.1553 90.7615 115.109 89.441 136.065 88.1624C138.161 88.0312 140.257 87.9255 142.442 87.8027V73.1047C120.142 73.6954 98.0566 74.5211 75.9643 74.7915C53.7432 75.0639 31.5152 74.7823 9.19969 74.7436ZM143.017 127.038L12.5372 130.178C12.7209 132.957 12.9377 135.728 13.0788 138.503C13.2186 141.255 13.2823 144.011 13.3775 146.707C22.6102 147.823 138.836 145.436 143.635 144.025C143.432 138.387 143.224 132.709 143.017 127.039V127.038ZM107.833 118.687C112.427 118.687 116.871 118.672 121.311 118.694C123.454 118.704 125.196 118.304 125.956 115.872C126.269 114.871 127.249 114.067 127.967 113.208C131.928 108.483 135.909 103.768 139.862 99.0346C140.372 98.4236 140.772 97.722 141.438 96.7375C133.899 97.3216 126.867 97.8992 119.823 98.3855C118.313 98.4899 117.395 98.9441 116.801 100.456C115.898 102.743 114.709 104.919 113.613 107.126C111.689 111.007 109.741 114.876 107.833 118.687ZM70.2049 120.318C74.5781 113.407 78.5306 107.161 82.7272 100.53C75.5934 100.87 68.9966 101.211 62.3964 101.48C60.9433 101.539 60.2601 102.268 59.6557 103.496C57.0375 108.822 54.3175 114.098 51.6482 119.399C51.4289 119.946 51.2413 120.504 51.0855 121.072L70.2049 120.318ZM98.9958 119.432C101.222 111.926 106.596 106.26 110.192 99.0196L90.7831 100.044L79.6069 120.011L98.9958 119.432ZM41.2135 121.567C45.2171 114.961 49.0135 108.703 53.159 101.864C47.3018 102.127 42.1704 102.27 37.0588 102.669C36.2108 102.734 35.1919 103.764 34.6918 104.609C32.4123 108.454 30.2948 112.395 28.1092 116.292C27.0827 118.122 26.0235 119.934 24.6301 122.358L41.2135 121.567ZM53.3301 43.4633C53.2585 48.4784 55.3967 50.771 59.5749 50.5098C62.9427 50.3004 66.2007 49.232 69.0386 47.4066C71.7867 45.6594 72.2881 42.9435 71.9107 40.0451C71.7959 38.6881 71.2708 37.3981 70.4051 36.3466C69.5394 35.2951 68.375 34.5319 67.065 34.1584C63.3194 33.0531 59.4968 34.0973 56.4061 35.916C53.7505 37.4768 53.6734 41.0782 53.3288 43.4633H53.3301ZM29.1411 102.65H11.0533C11.4432 109.198 11.8327 115.721 12.2173 122.167C16.2138 122.852 16.1137 122.795 17.7795 119.904C19.5103 116.9 21.4191 113.997 23.3264 111.098C25.0407 108.492 26.8584 105.954 29.1398 102.65H29.1411ZM142.451 116.737V107.328L141.828 107.182L134.875 117.544L142.451 116.737Z" fill="black"/>
</g>
<defs>
<clipPath id="clip0">
<rect width="153.583" height="154.896" fill="white" transform="translate(0.633301 0.432617)"/>
</clipPath>
</defs>
</svg>

<svg xmlns="http://www.w3.org/2000/svg" width="155" height="156" fill="none" viewBox="0 0 155 156"><g clip-path="url(#a)"><path fill="#000" d="M82.198 18.069q.621.625 1.313 1.17c12.852 7.794 25.676 15.633 38.578 23.343 7.12 4.256 14.395 8.251 21.542 12.461a40 40 0 0 1 4.792 3.65c.507.415 1.156 1.01 1.208 1.57.299 3.234 2.772 6.068 1.546 9.624-.447 1.3-.136 2.883-.074 4.332.888 20.855 1.82 41.709 2.663 62.567.108 2.68-.253 5.377-.321 8.068a7.7 7.7 0 0 0 .349 2.538c.97 2.959-.035 5.422-2.979 6.42a15 15 0 0 1-4.62.684q-29.643.213-59.288.323c-14.935.066-29.872.214-44.806.092-10.436-.085-20.866-.583-31.3-.853-2.59-.066-4.157-.963-5.37-3.564a23.3 23.3 0 0 1-2.253-9.356c-.624-19.523-1.308-39.045-1.911-58.569-.119-3.811.022-7.63.06-11.446a5.2 5.2 0 0 1 .172-1.658c2.373-6.629 4.455-13.38 7.241-19.83a115.5 115.5 0 0 1 30.143-41.65 60.5 60.5 0 0 1 7.894-5.71c3.33-2.073 4.636-1.759 7.668.776a24.4 24.4 0 0 0 3.95 2.553c4.82 2.642 9.708 5.16 14.494 7.859 1.694.955 2.823.803 4.513-.279A120 120 0 0 1 89.15 6.747a9.3 9.3 0 0 1 4.553-.825c1.05.072 2.578.874 2.894 1.721.31.83-.353 2.437-1.11 3.155-1.181 1.123-2.773 1.846-4.248 2.629-2.843 1.515-5.731 2.953-9.042 4.642m57.413 45.243c-21.245-12.966-41.517-27.13-63.166-39.142-.64.746-1.026 1.143-1.35 1.587-.384.525-.715 1.096-1.213 1.87a31 31 0 0 1 2.54 2.325c5.541 6.305 5.256 16.896-.976 21.856-5.447 4.335-11.864 6.344-18.912 5.285-5.593-.84-9.144-4.909-9.567-10.556-.755-10.08 6.99-20.074 16.965-21.278 3.158-.381 4.884-1.653 5.96-4.45L48.203 7.76c-17.76 15.782-30.307 35.27-36.764 58.809 8.281.978 117.091-1.269 128.172-3.256M9.2 74.744c-.46 1.772.574 16.48 1.54 19.663 5.982 0 12.031.225 18.058-.045 14.805-.665 29.6-1.503 44.399-2.371 20.958-1.23 41.912-2.55 62.868-3.829 2.096-.13 4.192-.237 6.377-.36V73.106c-22.3.59-44.385 1.416-66.478 1.686-22.22.273-44.449-.009-66.764-.047m133.817 52.294-130.48 3.14c.184 2.779.4 5.55.542 8.325.14 2.752.203 5.508.298 8.204 9.233 1.116 125.459-1.271 130.258-2.682-.203-5.638-.411-11.316-.618-16.986zm-35.184-8.351c4.594 0 9.038-.015 13.478.007 2.143.01 3.885-.39 4.645-2.822.313-1.001 1.293-1.805 2.011-2.664 3.961-4.725 7.942-9.44 11.895-14.173.51-.611.91-1.313 1.576-2.297-7.539.584-14.571 1.161-21.615 1.647-1.51.105-2.428.56-3.022 2.071-.903 2.287-2.092 4.463-3.188 6.67-1.924 3.881-3.872 7.75-5.78 11.561m-37.628 1.631 12.522-19.788c-7.134.34-13.73.681-20.33.95-1.454.059-2.137.788-2.741 2.016-2.618 5.326-5.338 10.602-8.008 15.903a16 16 0 0 0-.562 1.673zm28.79-.886c2.227-7.506 7.601-13.172 11.197-20.412l-19.409 1.024-11.176 19.967zm-57.781 2.135c4.003-6.606 7.8-12.864 11.945-19.703-5.857.263-10.989.406-16.1.805-.848.065-1.867 1.095-2.367 1.94-2.28 3.845-4.397 7.786-6.583 11.683-1.026 1.83-2.086 3.642-3.479 6.066zM53.33 43.463c-.072 5.015 2.067 7.308 6.245 7.047a19.76 19.76 0 0 0 9.464-3.103c2.748-1.748 3.25-4.463 2.872-7.362a6.71 6.71 0 0 0-4.846-5.887c-3.746-1.105-7.568-.06-10.659 1.758-2.655 1.56-2.733 5.162-3.077 7.547zM29.141 102.65H11.053l1.164 19.517c3.997.685 3.897.628 5.562-2.263 1.731-3.004 3.64-5.907 5.547-8.806 1.715-2.606 3.532-5.144 5.814-8.448zm113.31 14.087v-9.409l-.623-.146-6.953 10.362z"/></g><defs><clipPath id="a"><path fill="#fff" d="M.633.433h153.583v154.896H.633z"/></clipPath></defs></svg>
